images_sukapura_svg/cmd/sc_connector.svg

<svg viewBox="0 0 16 16" xmlns="http://www.w3.org/2000/svg" xmlns:xlink="http://www.w3.org/1999/xlink"><linearGradient id="a" gradientTransform="translate(-29.694915 1.220339)" gradientUnits="userSpaceOnUse" x1="14" x2="13.79661" y1="22" y2="2.135593"><stop offset="0" stop-color="#0040dd"/><stop offset="1" stop-color="#0a84ff"/></linearGradient><linearGradient id="b" gradientUnits="userSpaceOnUse" x1="10.576271" x2="10.762712" xlink:href="#a" y1="14.483051" y2="1.533898"/><linearGradient id="c" gradientUnits="userSpaceOnUse" x1="13" x2="13" xlink:href="#a" y1="15" y2="11"/><linearGradient id="d" gradientTransform="translate(-10 -10)" gradientUnits="userSpaceOnUse" x1="13" x2="13" xlink:href="#a" y1="15" y2="11"/>
/&amp;amp;gt;<g fill="#4d82b8"><path d="m4 2v1h4v9 1h5v-1h-4v-9-1z" fill="url(#b)"/><path d="m15 13a2 2 0 0 1 -2 2 2 2 0 0 1 -2-2 2 2 0 0 1 2-2 2 2 0 0 1 2 2z" fill="url(#c)"/><path d="m5 3a2 2 0 0 1 -2 2 2 2 0 0 1 -2-2 2 2 0 0 1 2-2 2 2 0 0 1 2 2z" fill="url(#d)"/></g></svg>

<?xml version="1.0" encoding="UTF-8" standalone="no"?>
<svg
   xmlns:dc="http://purl.org/dc/elements/1.1/"
   xmlns:cc="http://creativecommons.org/ns#"
   xmlns:rdf="http://www.w3.org/1999/02/22-rdf-syntax-ns#"
   xmlns:svg="http://www.w3.org/2000/svg"
   xmlns="http://www.w3.org/2000/svg"
   xmlns:xlink="http://www.w3.org/1999/xlink"
   xmlns:sodipodi="http://sodipodi.sourceforge.net/DTD/sodipodi-0.dtd"
   xmlns:inkscape="http://www.inkscape.org/namespaces/inkscape"
   viewBox="0 0 16 16"
   version="1.1"
   id="svg10"
   sodipodi:docname="sc_connector.svg"
   inkscape:export-filename="D:\Rizmut\libreoffice-style-sukapura-master\images_sukapura\cmd\sc_connectorarrowstart.png"
   inkscape:export-xdpi="96"
   inkscape:export-ydpi="96"
   inkscape:version="0.92.3 (2405546, 2018-03-11)"><metadata
   id="metadata16">
  <rdf:RDF>
    <cc:Work
       rdf:about="">
      <dc:format>image/svg+xml</dc:format>
      <dc:type
         rdf:resource="http://purl.org/dc/dcmitype/StillImage" />
      <dc:title></dc:title>
    </cc:Work>
  </rdf:RDF>
</metadata>
<defs
   id="defs14">
  <linearGradient
     gradientTransform="translate(-29.694915,1.220339)"
     id="a-6"
     gradientUnits="userSpaceOnUse"
     x1="14"
     x2="13.79661"
     y1="22"
     y2="2.1355929">
    <stop
       offset="0"
       stop-color="#0040dd"
       id="stop2" />
    <stop
       offset="1"
       stop-color="#0a84ff"
       id="stop4" />
  </linearGradient>
  <linearGradient
     inkscape:collect="always"
     xlink:href="#a-6"
     id="linearGradient1565"
     x1="10.576271"
     y1="14.483051"
     x2="10.762712"
     y2="1.5338984"
     gradientUnits="userSpaceOnUse" />
  <linearGradient
     inkscape:collect="always"
     xlink:href="#a-6"
     id="linearGradient3302"
     x1="13"
     y1="15"
     x2="13"
     y2="11"
     gradientUnits="userSpaceOnUse" />
  <linearGradient
     inkscape:collect="always"
     xlink:href="#a-6"
     id="linearGradient3313"
     gradientUnits="userSpaceOnUse"
     x1="13"
     y1="15"
     x2="13"
     y2="11"
     gradientTransform="translate(-10,-10)" />
</defs>
<sodipodi:namedview
   pagecolor="#ffffff"
   bordercolor="#666666"
   borderopacity="1"
   objecttolerance="10"
   gridtolerance="10"
   guidetolerance="10"
   inkscape:pageopacity="0"
   inkscape:pageshadow="2"
   inkscape:window-width="1366"
   inkscape:window-height="716"
   id="namedview12"
   showgrid="true"
   inkscape:zoom="20.85965"
   inkscape:cx="12.733411"
   inkscape:cy="4.0700689"
   inkscape:window-x="-8"
   inkscape:window-y="-8"
   inkscape:window-maximized="1"
   inkscape:current-layer="g8">
  <inkscape:grid
     type="xygrid"
     id="grid1609" />
</sodipodi:namedview>
/&amp;gt;<g
   fill="#4d82b8"
   id="g8">
  <path
     d="m 4,2 v 1 h 4 v 9 1 h 5 V 12 H 9 V 3 2 Z"
     id="path4"
     style="fill:url(#linearGradient1565);fill-opacity:1;stroke:none"
     inkscape:connector-curvature="0"
     sodipodi:nodetypes="ccccccccccc" />
  <path
     style="fill:url(#linearGradient3302);fill-opacity:1;stroke:none"
     d="m 15,13 a 2,2 0 0 1 -2,2 2,2 0 0 1 -2,-2 2,2 0 0 1 2,-2 2,2 0 0 1 2,2 z"
     id="circle4" />
  <path
     id="path3311"
     d="M 5,3 A 2,2 0 0 1 3,5 2,2 0 0 1 1,3 2,2 0 0 1 3,1 2,2 0 0 1 5,3 Z"
     style="fill:url(#linearGradient3313);fill-opacity:1;stroke:none"
     inkscape:connector-curvature="0" />
</g>
</svg>
